img/i/whiteboard.svg

<svg enable-background="new 0 0 512.001 512.001" viewBox="0 0 512.001 512.001" xmlns="http://www.w3.org/2000/svg"><path d="m34.752 34.751h442.498v301.176h-442.498z" fill="#bec8d6"/><path d="m500.417 324.344h-11.584v-289.593c0-6.397-5.187-11.584-11.584-11.584h-209.665v-11.583c0-6.397-5.187-11.584-11.584-11.584s-11.584 5.187-11.584 11.584v11.584h-209.664c-6.397 0-11.584 5.187-11.584 11.584v289.593h-11.584c-6.396-.001-11.584 5.186-11.584 11.583s5.187 11.584 11.584 11.584h232.833v53.299l-86.921 91.634c-4.403 4.642-4.21 11.973.432 16.376 4.64 4.405 11.974 4.21 16.376-.432l70.113-73.914v65.943c0 6.397 5.187 11.584 11.584 11.584s11.584-5.187 11.584-11.584v-65.943l70.113 73.914c2.277 2.401 5.338 3.612 8.406 3.612 2.862 0 5.729-1.054 7.97-3.18 4.642-4.403 4.835-11.734.432-16.376l-86.921-91.634v-53.299h232.833c6.397 0 11.584-5.187 11.584-11.584-.002-6.397-5.188-11.584-11.585-11.584zm-454.082-278.009h419.33v278.009h-419.33z" fill="#11113f"/></svg>

<?xml version="1.0" encoding="iso-8859-1"?>
<!-- Generator: Adobe Illustrator 19.0.0, SVG Export Plug-In . SVG Version: 6.00 Build 0)  -->
<svg version="1.1" id="Layer_1" xmlns="http://www.w3.org/2000/svg" xmlns:xlink="http://www.w3.org/1999/xlink" x="0px" y="0px"
	 viewBox="0 0 512.001 512.001" style="enable-background:new 0 0 512.001 512.001;" xml:space="preserve">
<rect x="34.752" y="34.751" style="fill:#BEC8D6;" width="442.498" height="301.176"/>
<path style="fill:#11113F;" d="M500.417,324.344h-11.584V34.751c0-6.397-5.187-11.584-11.584-11.584H267.584V11.584
	C267.584,5.187,262.397,0,256,0c-6.397,0-11.584,5.187-11.584,11.584v11.584H34.752c-6.397,0-11.584,5.187-11.584,11.584v289.593
	H11.584C5.188,324.344,0,329.531,0,335.928c0,6.397,5.187,11.584,11.584,11.584h232.833v53.299l-86.921,91.634
	c-4.403,4.642-4.21,11.973,0.432,16.376c4.64,4.405,11.974,4.21,16.376-0.432l70.113-73.914v65.943
	c0,6.397,5.187,11.584,11.584,11.584c6.397,0,11.584-5.187,11.584-11.584v-65.943l70.113,73.914
	c2.277,2.401,5.338,3.612,8.406,3.612c2.862,0,5.729-1.054,7.97-3.18c4.642-4.403,4.835-11.734,0.432-16.376l-86.921-91.634v-53.299
	h232.833c6.397,0,11.584-5.187,11.584-11.584C512,329.531,506.814,324.344,500.417,324.344z M46.335,46.335h419.33v278.009H46.335
	V46.335z"/>
<g>
</g>
<g>
</g>
<g>
</g>
<g>
</g>
<g>
</g>
<g>
</g>
<g>
</g>
<g>
</g>
<g>
</g>
<g>
</g>
<g>
</g>
<g>
</g>
<g>
</g>
<g>
</g>
<g>
</g>
</svg>
